UI/Misc/SVG/building-office_outline_24px.svg

<svg width="24" height="24" viewBox="0 0 24 24" fill="none" xmlns="http://www.w3.org/2000/svg">
<path fill-rule="evenodd" clip-rule="evenodd" d="M18 11H16V14H18V11ZM18 6H16V9H18V6ZM14 11H12V14H14V11ZM14 6H12V9H14V6ZM22 2H8V20H4V9H6V7H2V20C2 20.5304 2.21071 21.0391 2.58579 21.4142C2.96086 21.7893 3.46957 22 4 22H22V2ZM20 20H16V17H14V20H10V4H20V20Z" fill="#0F1621"/>
</svg>

<svg xmlns="http://www.w3.org/2000/svg" width="24" height="24" viewBox="0 0 24 24"><rect width="24" height="24" style="fill:none"/><path d="M18,11H16v3h2Zm0-5H16V9h2Zm-4,5H12v3h2Zm0-5H12V9h2Zm8-4H8V20H4V9L6,9V7L2,7V20a2,2,0,0,0,2,2H22ZM20,20H16V17H14v3H10V4H20Z" style="fill-rule:evenodd"/></svg>
